assets/images/icon/podbay.svg

<svg fill="none" height="399" viewBox="0 0 363 399" width="363" xmlns="http://www.w3.org/2000/svg" xmlns:xlink="http://www.w3.org/1999/xlink"><linearGradient id="a" gradientUnits="userSpaceOnUse" x1="264.38" x2="45.98" y1="53.764" y2="436.614"><stop offset=".31" stop-color="#3adee6"/><stop offset=".44" stop-color="#38d8e0"/><stop offset=".61" stop-color="#33c6ce"/><stop offset=".82" stop-color="#2ba9b0"/><stop offset="1" stop-color="#21888f"/></linearGradient><linearGradient id="b" gradientUnits="userSpaceOnUse" x1="288.51" x2="46.98" y1="362.514" y2="133.834"><stop offset=".15" stop-color="#9b7dd9"/><stop offset=".37" stop-color="#7d63b3"/><stop offset=".57" stop-color="#664f95"/><stop offset=".75" stop-color="#584283"/><stop offset=".88" stop-color="#533e7d"/></linearGradient><radialGradient id="c" cx="91.39" cy="51.4944" gradientUnits="userSpaceOnUse" r="480.67"><stop offset=".35" stop-color="#ff78c9"/><stop offset=".42" stop-color="#fd7ecb"/><stop offset=".51" stop-color="#f890d1"/><stop offset=".62" stop-color="#efaedb"/><stop offset=".66" stop-color="#ebbce0"/></radialGradient><path d="m0 267.154v-135.44c.00098748-11.233 2.95865-22.268 8.57578-31.9964 5.61712-9.7282 13.69582-17.8065 23.42422-23.4232l117.3-67.72003c9.729-5.61717 20.766-8.57437 32-8.57437s22.271 2.9572 32 8.57437l117.29 67.72003c9.728 5.6167 17.807 13.695 23.424 23.4232 5.617 9.7284 8.575 20.7634 8.576 31.9964v135.44c-.003 11.232-2.961 22.265-8.578 31.992-5.617 9.726-13.695 17.803-23.422 23.418l-117.31 67.72c-9.729 5.618-20.766 8.575-32 8.575s-22.271-2.957-32-8.575l-117.29-67.72c-9.7251-5.617-17.8008-13.694-23.41606-23.42-5.61523-9.726-8.57221125-20.759-8.57394-31.99z" fill="url(#a)"/><path d="m212.45 368.604 105-60.61c3.56-2.063 6.892-4.496 9.94-7.26l-114.11-65.82c-9.73-5.615-20.766-8.571-32-8.57v124.26c-.001 3.648.959 7.232 2.783 10.392 1.823 3.159 4.446 5.783 7.605 7.607 3.159 1.825 6.743 2.785 10.391 2.785 3.648.001 7.232-.96 10.391-2.784z" fill="url(#b)"/><path d="m327.37 300.734c6.043-5.46 10.874-12.126 14.182-19.569 3.307-7.443 5.016-15.496 5.018-23.641v-119.88c.001-3.648-.959-7.232-2.782-10.391-1.824-3.16-4.447-5.783-7.606-7.608-3.159-1.824-6.743-2.784-10.391-2.785-3.648 0-7.232.96-10.391 2.784l-115.29 66.57c-5.725 3.307-10.479 8.062-13.785 13.788-3.305 5.726-5.045 12.221-5.045 18.832v7.46c11.234-.001 22.27 2.955 32 8.57z" fill="url(#c)"/></svg>

<svg xmlns="http://www.w3.org/2000/svg" width="363" height="399" fill="none" viewBox="0 0 363 399"><path fill="url(#paint0_linear)" d="M0 267.154V131.714C0.000987483 120.481 2.95865 109.446 8.57578 99.7176C14.1929 89.9894 22.2716 81.9111 32 76.2944L149.3 8.57437C159.029 2.9572 170.066 0 181.3 0C192.534 0 203.571 2.9572 213.3 8.57437L330.59 76.2944C340.318 81.9111 348.397 89.9894 354.014 99.7176C359.631 109.446 362.589 120.481 362.59 131.714V267.154C362.587 278.386 359.629 289.419 354.012 299.146C348.395 308.872 340.317 316.949 330.59 322.564L213.28 390.284C203.551 395.902 192.514 398.859 181.28 398.859C170.046 398.859 159.009 395.902 149.28 390.284L31.99 322.564C22.2649 316.947 14.1892 308.87 8.57394 299.144C2.95871 289.418 0.00172875 278.385 0 267.154V267.154Z"/><path fill="url(#paint1_linear)" d="M212.45 368.604L317.45 307.994C321.01 305.931 324.342 303.498 327.39 300.734L213.28 234.914C203.55 229.299 192.514 226.343 181.28 226.344V350.604C181.279 354.252 182.239 357.836 184.063 360.996C185.886 364.155 188.509 366.779 191.668 368.603C194.827 370.428 198.411 371.388 202.059 371.388C205.707 371.389 209.291 370.428 212.45 368.604V368.604Z"/><path fill="url(#paint2_radial)" d="M327.37 300.734C333.413 295.274 338.244 288.608 341.552 281.165C344.859 273.722 346.568 265.669 346.57 257.524V137.644C346.571 133.996 345.611 130.412 343.788 127.253C341.964 124.093 339.341 121.47 336.182 119.645C333.023 117.821 329.439 116.861 325.791 116.86C322.143 116.86 318.559 117.82 315.4 119.644L200.11 186.214C194.385 189.521 189.631 194.276 186.325 200.002C183.02 205.728 181.28 212.223 181.28 218.834V226.294C192.514 226.293 203.55 229.249 213.28 234.864L327.37 300.734Z"/><defs><linearGradient id="paint0_linear" x1="264.38" x2="45.98" y1="53.764" y2="436.614" gradientUnits="userSpaceOnUse"><stop offset=".31" stop-color="#3ADEE6"/><stop offset=".44" stop-color="#38D8E0"/><stop offset=".61" stop-color="#33C6CE"/><stop offset=".82" stop-color="#2BA9B0"/><stop offset="1" stop-color="#21888F"/></linearGradient><linearGradient id="paint1_linear" x1="288.51" x2="46.98" y1="362.514" y2="133.834" gradientUnits="userSpaceOnUse"><stop offset=".15" stop-color="#9B7DD9"/><stop offset=".37" stop-color="#7D63B3"/><stop offset=".57" stop-color="#664F95"/><stop offset=".75" stop-color="#584283"/><stop offset=".88" stop-color="#533E7D"/></linearGradient><radialGradient id="paint2_radial" cx="0" cy="0" r="1" gradientTransform="translate(91.39 51.4944) scale(480.67)" gradientUnits="userSpaceOnUse"><stop offset=".35" stop-color="#FF78C9"/><stop offset=".42" stop-color="#FD7ECB"/><stop offset=".51" stop-color="#F890D1"/><stop offset=".62" stop-color="#EFAEDB"/><stop offset=".66" stop-color="#EBBCE0"/></radialGradient></defs></svg>
